X:1
T:Theoktistus, 76.76.88.77
T:Theoktistus, 76.76.88.77
T:Frederick Arthur Gore-Ouseley, 1882
T:Public Domain Courtesy of the Cyber Hymnal™
C:Frederick Arthur Gore-Ouseley, 1882
Z:Public Domain
Z:Courtesy of the Cyber Hymnal™
%%score ( 1 2 ) ( 3 4 )
L:1/8
Q:1/4=112
M:4/4
K:G
V:1 treble 
V:2 treble 
V:3 bass 
V:4 bass 
V:1
 [GB]2 [FB]2 G2 G2 | e3 z e [Gd]4 | [Dd]2 [FB]2 [EG]2 [Ec]2 | B4 [DA]4 | %4
 [B,A]2 [^DF]2 [EG]2 B2 x2 | [EA]2 [^CE]2 [DF]4 | [Dd]2 [EB]2 [FA]2 [DF]2 | E4 D4 | %8
 D2 (EF) [DG]2 [DB]2 | [Dd]2 z c [Fc]2 [GB]2 | E2 (F^G) [EA]2 [Ec]2 | e3 z d [=Gd]2 [Ac]2 | %12
 [Ac]2 [^GB]2 A2 [EB]2 | [Ec]2 c2 [^DB]4 | [EB]2 E2 c2 ([GB][EA]) | [DG]2 [CA]2 [B,G]4- | %16
 [B,G]4 z4 |] %17
V:2
 x4 G2 G2 | G2 G2 x5 | x8 | (B,2 ^C2) x4 | x6 (GF) x2 | x8 | x8 | (D2 ^C2) D4 | D2 D2 x4 | %9
 x2 F2 x4 | E2 E2 x4 | E2 ^G2 x5 | x4 A2 x2 | x2 (FE) x4 | x2 E2 (EF) x2 | x8 | x8 |] %17
V:3
 [G,D]2 [D,D]2 [E,B,]2 [B,,D]2 | [C,D]2 [E,C]2 [G,B,]4 x | [F,A,]2 [D,B,]2 [E,B,]2 (A,G,) | %3
 (G,2 E,2) [D,F,]4 | [^D,F,]2 [B,,B,]2 (B,2 z) x3 | [^C,E,]2 [A,,A,]2 [D,A,]4 | %6
 [B,,B,]2 [^C,G,]2 [D,F,]2 [F,A,]2 | ([G,B,]2 A,2) [D,F,]4 | [D,F,]2 (G,A,) [B,,G,]2 G,2 | %9
 [D,A,]2 [D,A,]2 [G,A,]2 [G,,B,]2 | [E,^G,]2 (A,B,) [C,A,]2 A,2 | %11
 [^G,B,]2 [E,B,]2 [A,B,]2 [A,,C]2 x | [A,,C]2 [B,,D]2 [C,E]2 [E,^G,]2 | A,2 (A,G,) [B,,F,]4 | %14
 [E,G,]2 [G,B,]2 C2 ([B,,D][C,C]) | [D,B,]2 [D,F,]2 [G,,G,]4- | [G,,G,]4 z4 |] %17
V:4
 x8 | x9 | x6 A,,2 | D,4 x4 | x4 E,3 (B,2 =D,) | x8 | x8 | x2 A,2 x4 | x2 C,2 x G,2 x | x8 | %10
 x2 D,2 x A,2 x | x9 | x8 | A,2 A,,2 x4 | x4 (A,A,,) x2 | x8 | x8 |] %17

